X:1
T:Title
L:1/8
Q:1/4=100
M:3/4
K:F
V:1 treble nm="Church Organ, Staff"
V:1
 c2 c2 A2 | c2 d4 | c2 c>B A2 | A>B c4 | d2 c4 | f2 e>d c2 | B2 A2 F2 | A2 B2 G2 | B2 AB c2- | %9
w: By~Rev.~T.~Helmore * *|||||||||
 c2 f2 e2 | d2 c2 B2 | G2 F4 | E2 F4 | A2 c2 A2 | c2 c2 A2 | c2 d4 | c2 z2 z2 | G2 G4 | A2 B4 | %19
w: ||||||||||
 z2 A4 | z2 A>B c2 | d2 F3 E | F2 B2 A2 | G2 F4 | z2 F2 E2 | G2 F4 |] %26
w: |||||||

